X:1
T: Eglinton Castle
C:
R:Strathspey
Q: 128
K:Bb
M:4/4
L:1/16
|:d2|B4 F3D G2C2 C2dc|B3F G2F2 B4 B2dc|B3F GFED G2C2 C2de|f3d fedc c2B2 B2d2|
B4 F3D G2C2 C2dc|B3F G2F2 B4 B2dc|B3F GFED G2C2 C2de|f3d fedc c2B2 B2d2|
B3d f2ed d2c2 c2dc|B3d f2ed cBcd B3d|B3d gfed d2c2 c2dc|B3F G3F B4 B3d|
B3d f2ed d2c2 c2dc|B3d gfed cBcd B3d|G3B GFED G2C2 C2de|f3d fedc c2B2 B2:|
